X: 1
T: O virgo splendens
B: Llibre Vermeil
F:http://www.cervantesvirtual.com/s3/BVMC_OBRAS/ff6/fe3/e28/2b1/11d/fac/c70/021/85c/e60/64/mimes/imagenes/ff6fe3e2-82b1-11df-acc7-002185ce6064_111.jpg
F:http://www.cervantesvirtual.com/s3/BVMC_OBRAS/ff6/fe3/e28/2b1/11d/fac/c70/021/85c/e60/64/mimes/imagenes/ff6fe3e2-82b1-11df-acc7-002185ce6064_112.jpg
Z:Ali Corbin <ali.corbin:gmail.com>
N: Equal notes
N: Can be sung as a three part canon
M: none
L: 1/8
Q: 1/8=180
K: D Dorian
V:1
%Staff 1
%%MIDI program 74
"^I" (FGF AGA FGF FDED) (CD)  D3|"^II" (DCD FGF) (AGA FAG AcA) A3 |
w:O** *** *** ****   vir-*go Splen-*****dens******** hic 
"^III"  (BcA) (AGA cdA AF) (ED) (CD)  D3 | G (FD) F (GF) (ED FD AGF) (GA) A3 |
w:In**  mon-*******  te*  cel-*so  Mi-ra-*cu-lis* ser-******   ra-*to
 (GA) (Ac) (Bc) (cdA) F (DEFGD) D3 | (ED) (DCDC) (ED DA AGAGA) A3 |
w:Ful-*gen-*ti-*bus** u-bi-****que   Quem* fi-*** de-******** les 
 (CD) (FG)  (FECD)   D  D (FGFED)  D3 |(GFA GAB cA) F    A (AG) (Acd) A3 |
w:Con-*scen-*dunt*** u-ni- ver-****si,  E-***** **  ya, pi- e-*  ta-**tis 
 (dc) (cBA) (GA AF) (FGF) (FAG) A3 | G  A (AB) c (dA)   F  F (DCDF)   F  E D3 |
w:O-*  cu-** lo***   pla-**ca-**to, Cer-ne li-*ga-tos* fu-ne  pec-***ca-to-rum
  G (FD)  D   E  D  D (DFA) (AGF)    D  C  D3 |  
w:Ne in-*fer-no-rum ic-ti-** bus** gra-ven-tur, 
   C   D   F (FG) F (AFAcABABc) A3 (GA)   F (FEF) (DADCDEDDC)  D3 ||
w:Sed cum be- a-*tis tu-********a   pre-*ce  vo-** cen-********tur.
%
W:
W:
W:Antiphona dulcis armonia dulcissime Virginis Marie de Monte Serrato
W:
W:O Virgo Splendens hic 
W:In monte celso Miraculis serrato 
W:Fulgentibus ubique Quem fideles 
W:Conscendunt universi, Eya, pietatis 
W:Oculo placato, Cerneligatos fune peccatorum
W:Ne infernorum ictibus graventur,
W:Sed cum beatis tua prece vocentur.

